X: 29
T: Road to the Isles
T: March, D
L: 1/16
M: C
K: D
|: A2d2| f8 a2f2e2f2| d2e2 d1c3 B4d2c2| B2G2B2c2 d2e2 f1a3| e8 e4A2d2|
 f8 a2f2e2f2| d2e2 d1c3 B4g4| f2a2f2d2 A2c2 e1c3| d8 d4:| 
|: f2g2| a2A2 A1A1A2 f2A2 A1A1A2| d2e2d2c2 B4d2c2| B2G2B2c2 d2e2 f1a3| e8 e4f2g2|   
a2A2 A1A1A2 f2A2 A1A1A2| d2e2d2c2 B4g4| f2a2f2d2 A2c2 e1c3| d8 d4:| 
D: Natalie MacMaster, A Compilation, Rounder 7021
